packages/kaspersky-hexa-ui-icons/src/iconsSVGs/16/ActivePoll.svg

<svg width="16" height="16" viewBox="0 0 16 16" fill="none" xmlns="http://www.w3.org/2000/svg">
<path d="M5.24979 3.86967C5.24979 4.31288 4.89049 4.67217 4.44728 4.67217C4.00407 4.67217 3.64478 4.31288 3.64478 3.86967C3.64478 3.42646 4.00407 3.06717 4.44728 3.06717C4.89049 3.06717 5.24979 3.42646 5.24979 3.86967Z" fill="black"/>
<path d="M7.65437 3.86967C7.65437 4.31288 7.29507 4.67217 6.85186 4.67217C6.40865 4.67217 6.04936 4.31288 6.04936 3.86967C6.04936 3.42646 6.40865 3.06717 6.85186 3.06717C7.29507 3.06717 7.65437 3.42646 7.65437 3.86967Z" fill="black"/>
<path fill-rule="evenodd" clip-rule="evenodd" d="M2.90312 1.21582C1.82617 1.21582 0.953125 2.08887 0.953125 3.16582V4.57434C0.953125 5.6513 1.82617 6.52434 2.90313 6.52434H13.1031C14.1801 6.52434 15.0531 5.6513 15.0531 4.57434V3.16582C15.0531 2.08886 14.1801 1.21582 13.1031 1.21582H2.90312ZM2.25312 3.16582C2.25312 2.80684 2.54414 2.51582 2.90312 2.51582H13.1031C13.4621 2.51582 13.7531 2.80684 13.7531 3.16582V4.57434C13.7531 4.93333 13.4621 5.22434 13.1031 5.22434H2.90313C2.54414 5.22434 2.25312 4.93333 2.25312 4.57434V3.16582Z" fill="black"/>
<path d="M4.44728 11.0184C4.89049 11.0184 5.24979 10.6592 5.24979 10.2159C5.24979 9.77273 4.89049 9.41344 4.44728 9.41344C4.00407 9.41344 3.64478 9.77273 3.64478 10.2159C3.64478 10.6592 4.00407 11.0184 4.44728 11.0184Z" fill="black"/>
<path d="M2.90312 7.56209C1.82617 7.56209 0.953125 8.43514 0.953125 9.51209V10.9206C0.953125 11.9976 1.82617 12.8706 2.90313 12.8706H5.78081C5.78154 12.6213 5.83011 12.37 5.92929 12.1305C6.01599 11.9212 6.13645 11.7328 6.28282 11.5706H2.90313C2.54414 11.5706 2.25312 11.2796 2.25312 10.9206V9.51209C2.25312 9.15311 2.54414 8.86209 2.90312 8.86209H8.45721C8.72424 8.72471 9.02709 8.64717 9.34806 8.64717H10.9606C11.0367 8.29235 11.2126 7.95465 11.4882 7.67896C11.5294 7.63777 11.572 7.59882 11.6158 7.56209H2.90312Z" fill="black"/>
<path d="M15.007 10.8459C14.9064 11.0888 14.6694 11.2472 14.4065 11.2472H9.34806C8.98908 11.2472 8.69806 10.9562 8.69806 10.5972C8.69806 10.2382 8.98908 9.94717 9.34806 9.94717H12.8372L12.4075 9.51743C12.1537 9.26359 12.1537 8.85203 12.4075 8.59819C12.6613 8.34435 13.0729 8.34435 13.3267 8.59819L14.8661 10.1375C15.052 10.3234 15.1076 10.603 15.007 10.8459Z" fill="black"/>
<path d="M7.13034 12.628C7.23095 12.3851 7.46796 12.2268 7.73086 12.2268H12.7893C13.1482 12.2268 13.4393 12.5178 13.4393 12.8768C13.4393 13.2357 13.1482 13.5268 12.7893 13.5268H9.3001L9.72983 13.9565C9.98367 14.2103 9.98367 14.6219 9.72983 14.8757C9.47599 15.1296 9.06444 15.1296 8.81059 14.8757L7.27124 13.3364C7.08534 13.1505 7.02973 12.8709 7.13034 12.628Z" fill="black"/>
</svg>

<svg xmlns="http://www.w3.org/2000/svg" width="16" height="16" fill="none" viewBox="0 0 16 16"><path fill="#000" fill-rule="evenodd" d="M2.9031 1.2158c-1.077 0-1.95.873-1.95 1.95v1.4085c0 1.077.873 1.95 1.95 1.95h10.2c1.077 0 1.95-.873 1.95-1.95V3.1658c0-1.077-.873-1.95-1.95-1.95zm-.65 1.95a.65.65 0 0 1 .65-.65h10.2a.65.65 0 0 1 .65.65v1.4085a.65.65 0 0 1-.65.65h-10.2a.65.65 0 0 1-.65-.65zm2.9967.7039a.8025.8025 0 1 1-1.605 0 .8025.8025 0 0 1 1.605 0m2.4046 0a.8025.8025 0 1 1-1.605 0 .8025.8025 0 0 1 1.605 0M2.903 7.562c-1.077 0-1.95.873-1.95 1.95v1.4085c0 1.077.873 1.95 1.95 1.95h2.8777a1.95 1.95 0 0 1 .1485-.7401 1.95 1.95 0 0 1 .3535-.5599H2.9031a.65.65 0 0 1-.65-.65V9.5121a.65.65 0 0 1 .65-.65h5.5541c.267-.1374.5699-.215.8909-.215h1.6125a1.94 1.94 0 0 1 .5276-.9681 2 2 0 0 1 .1276-.1169zm11.5034 3.6851a.65.65 0 0 0 .4596-1.1097l-1.5394-1.5393a.65.65 0 1 0-.9192.9192l.4297.4298h-3.489a.65.65 0 0 0 0 1.3zm-9.1567-1.0313a.8024.8024 0 0 1-.8025.8025.8025.8025 0 1 1 .8025-.8025m2.481 2.0109a.65.65 0 0 0-.4596 1.1096l1.5394 1.5393a.65.65 0 1 0 .9192-.9192L9.3 13.5267h3.4892a.6501.6501 0 0 0 0-1.3z"/></svg>
